assets/images/abb_m.svg

<svg width="91" height="91" fill="none" xmlns="http://www.w3.org/2000/svg"><circle cx="45.5" cy="45.5" r="33.5" fill="#023869"/><circle cx="45.5" cy="45.5" r="39.5" stroke="#023869" stroke-opacity=".12" stroke-width="12"/><path d="M33.397 58h5.436V41.656l7.02 10.656h.144l7.092-10.764V58h5.508V32.8h-5.976l-6.624 10.656L39.373 32.8h-5.976V58z" fill="#fff"/></svg>

<svg width="91" height="91" viewBox="0 0 91 91" fill="none" xmlns="http://www.w3.org/2000/svg">
<circle cx="45.5" cy="45.5" r="33.5" fill="#023869"/>
<circle cx="45.5" cy="45.5" r="39.5" stroke="#023869" stroke-opacity="0.12" stroke-width="12"/>
<path d="M33.397 58H38.833V41.656L45.853 52.312H45.997L53.089 41.548V58H58.597V32.8H52.621L45.997 43.456L39.373 32.8H33.397V58Z" fill="white"/>
</svg>
